svg/Outline/move.svg

<svg viewBox="0 0 24 24" xmlns="http://www.w3.org/2000/svg" width="24" height="24"><path d="M11.41 1.08q.59-.18 1.18 0l.19.08q.27.14.46.3l.53.5 2.66 2.67a.9.9 0 1 1-1.27 1.28L12.9 3.65v7.44h7.45l-2.27-2.26-.06-.07A.9.9 0 0 1 19.3 7.5l.07.06 2.67 2.67.5.52q.24.25.38.66.2.58 0 1.17l-.07.2q-.14.27-.3.45l-.51.53-2.67 2.67-.07.06a.9.9 0 0 1-1.2-1.33l2.26-2.26H12.9v7.44l2.26-2.26.07-.06a.9.9 0 0 1 1.27 1.27l-.07.06-2.66 2.67q-.29.3-.53.5-.25.24-.65.39-.59.18-1.18 0l-.19-.08q-.27-.14-.46-.3l-.53-.51-2.66-2.67a.9.9 0 0 1 1.27-1.27l2.26 2.26v-7.45H3.65l2.27 2.27.06.07a.9.9 0 0 1-1.27 1.26l-.07-.06-2.67-2.67q-.28-.28-.5-.53c-.14-.17-.3-.38-.38-.65a2 2 0 0 1 0-1.17l.07-.2q.14-.27.31-.46l.5-.52 2.67-2.67a.9.9 0 0 1 1.28 1.27L3.65 11.1h7.45V3.64L8.84 5.91a.9.9 0 0 1-1.28-1.28l2.67-2.66q.29-.3.53-.5.25-.24.65-.39"/></svg>

<svg viewBox="0 0 24 24" xmlns="http://www.w3.org/2000/svg" width="24" height="24"><path d="M11.41 1.08Q12 .9 12.59 1.08L12.78 1.16Q13.05 1.3 13.24 1.46L16.43 4.63A.9 .9 0 1 1 15.16 5.91L12.9 3.65L12.9 11.09L20.35 11.09L18.02 8.76A.9 .9 0 0 1 19.3 7.5L22.54 10.75Q22.78 11 22.92 11.41Q23.12 11.99 22.92 12.58L22.85 12.78Q22.71 13.05 22.55 13.23L19.3 16.49A.9 .9 0 0 1 18.1 15.16L20.36 12.9L12.9 12.9L12.9 20.34L15.23 18.02A.9 .9 0 0 1 16.5 19.29L13.77 22.02Q13.48 22.32 13.24 22.52Q12.99 22.76 12.59 22.91Q12 23.09 11.41 22.91L11.22 22.83Q10.95 22.69 10.76 22.53L7.57 19.35A.9 .9 0 0 1 8.84 18.08L11.1 20.34L11.1 12.89L3.65 12.89L5.98 15.23A.9 .9 0 0 1 4.71 16.49L1.97 13.76Q1.69 13.48 1.47 13.23C1.33 13.06 1.17 12.85 1.09 12.58A2 2 0 0 1 1.09 11.41L1.16 11.21Q1.3 10.94 1.47 10.75L4.64 7.56A.9 .9 0 0 1 5.92 8.83L3.65 11.1L11.1 11.1L11.1 3.64L8.84 5.91A.9 .9 0 0 1 7.56 4.63L10.23 1.97Q10.52 1.67 10.76 1.47Q11.01 1.23 11.41 1.08"/></svg>
